!!!OTL: ES WAR EIN KOENIG VON THULE
!!!ARE: Europa, Mitteleuropa, Deutschland
!!!SCT: F0826
!!!YEM: Copyright 1995, estate of Helmut Schaffrath.
**kern
*ICvox
*Ivox
*M4/4
*k[b-e-]
*g:
{4d
=1
4b-
4b-
8a
8a
4a
=2
2cc
4b-}
{4a
=3
4dd
4g
4f#
4g
=4
2a
4r}
{4a
=5
4b-
4b-
4ee-
4dd
=6
2dd
4cc#}
{8dd
8ee
=7
4ffn
4dd
4ee
4cc#
=8
2dd
4r}
{4dd
=9
4dd
4dd
4ee-
4a
=10
2cc
4f#}
{4a
=11
4b-
4c#
4c#
4c#
=12
2d
4r}
{4d
=13
4e-
4e-
4cc
8b-
8a
=14
4.g
8f#
4f#}
{8g
8a
=15
4b-
4g
8g
8a
4f#
=16
2g
4r}
==
!!!AGN: erzaehlendes Volks - Lied, Ballade
!!!ONB: ESAC (Essen Associative Code) Database: FINK
!!!AMT: simple quadruple
!!!AIN: vox
!!!EED: Helmut Schaffrath
!!!EEV: 1.0
*-
